X:1
T:Let the Blessèd Sunlight In
T:A. F. Myers, 1897
T:Let the Blessèd Sunlight In
T:Public Domain
T:Public Domain
C:A. F. Myers, 1897
Z:Public Domain
%%score ( 1 2 ) ( 3 4 )
L:1/8
M:4/4
K:Db
V:1 treble 
V:2 treble 
V:3 bass 
V:4 bass 
V:1
 D2 [DF]2 [FA]2 [Ad]2 | [GB]2 [Gd]2 [FA]4 | [FA]>[FA] [FA]>[FA] [Fd]2 [Fd]2 | [Gc]6 z2 | %4
w: 1.~Would you al- ways|ful be, Let|the bless- èd sun- light in;|Would|
w: 2.~Would you bright- en|y days, Let|the bless- èd sun- light in;|Would|
w: 3.~Would you ease a|dened heart, Let|the bless- èd sun- light in;|Would|
w: 4.~Would you speed the|a- broad, Let|the bless- èd sun- light in;|Would|
 D2 [DF]2 [FA]2 [Ad]2 | [GB]2 [Gd]2 [FA]4 | [Fd]>[Fd] [Fd]>[Fd] [Ge]2 [Gc]2 | [Fd]6 z2 || %8
w: you bid the dark-|flee, Let the|bless- èd sun- light in. *||
w: you fill your heart|praise, Let the|bless- èd sun- light in. Let|the|
w: you joy and strength|part, Let the|bless- èd sun- light in. *||
w: you bring the world|God, Let the|bless- èd sun- light in. *||
"^Refrain" [FA]>[FA] [FA]>[FA] [GB]2 [FA]2 | (F2 G2 F2) z2 | [Gc]>[Gc] [Gc]>[Gc] [GB]2 [GA]2 | %11
w: |||
w: bless- èd sun- light in, Let|the * *|èd sun- light in! Would you|
w: |||
w: |||
 (F2 G2 F2) z2 | [Fd]>[Ad] [=Gd]>[_Gd] [Fd]2 [Ad]2 | [GB]>[GB] [AB]>[AB] [=Ge]2 [Gd]2 | %14
w: |||
w: ne- * *|wear- y, When the days are|drear- y, Let the bless- èd|
w: |||
w: |||
 [Gc]>[Gc] [Gc]>[Gc] [GB]2 [GA]2 | (F2 G2 F2) |] %16
w: ||
w: sun- light in! * * *||
w: ||
w: ||
V:2
 D2 x6 | x8 | x8 | x8 | D2 x6 | x8 | x8 | x8 || x8 | D6 x2 | x8 | d6 x2 | x8 | x8 | x8 | d6 |] %16
w: cheer-||||ness||||||||||||
w: drear-||||with|||||bless-||ver|||||
w: bur-||||im-||||||||||||
w: truth||||to||||||||||||
V:3
 [D,F,]2 [D,A,]2 [D,D]2 [F,D]2 | [G,D]2 [B,,D]2 [D,D]4 | [D,D]>[D,D] [D,D]>[D,D] [D,A,]2 [D,A,]2 | %3
w: ~ ~ ~ ~|~ ~ ~|~ ~ ~ ~ ~ ~|
 A,6 z2 | [D,F,]2 [D,A,]2 [D,D]2 [F,D]2 | [G,D]2 [B,,D]2 [D,D]4 | %6
w: ~|~ ~ ~ ~|~ ~ ~|
 [D,A,]>[D,A,] [D,A,]>[D,A,] [A,,C]2 [A,,A,]2 | [D,A,]6 z2 || %8
w: ~ ~ ~ ~ ~ ~|~|
 [D,D]>[D,D] [D,D]>[D,D] [D,D]2 [D,D]2 | A,2 B,2 A,2 z2 | %10
w: ~ ~ ~ ~ ~ sun-|light in! ~|
 [A,,E]>[A,,E] [A,,E]>[A,,E] [A,C]2 [A,C]2 | D2 B,2 A,2 z2 | %12
w: ~ ~ ~ ~ sun- light|in! ~ ~|
 [D,A,]>[D,_C] [D,B,]>[D,=A,] [D,_A,]2 [F,D]2 | [E,D]>[E,D] [D,=B,]>[D,B,] [C,E]2 [C,E]2 | %14
w: ~ ~ ~ ~ ~ ~|~ ~ ~ ~ ~ ~|
 [A,E]>[A,E] [A,E]>[A,E] [A,C]2 [A,C]2 | A,2 B,2 A,2 |] %16
w: ~ ~ ~ sun- light in!||
V:4
 x8 | x8 | x8 | A,6 x2 | x8 | x8 | x8 | x8 || x8 | D,6 x2 | x8 | D,6 x2 | x8 | x8 | x8 | D,6 |] %16
w: |||~||||||~||~|||||

